X:1
T:Blair Athole [1]
T:Blair Athole [1]
T:Alexander Walker
C:Alexander Walker
L:1/8
M:2/2
K:Bmin
V:1 treble 
V:1
 A | F>B B/B/B d2 Bd | cAeA aAcA | F>B B/B/B d2 Bc | AFEC B,/B,/B,B, :| B | (FB)Bc dBfB | %7
 EAAE cAeE | (FB)Bc defb | afec (3BBB BB | (FB)Bc dBfB | EAAE cAeE | dBdb cAca | dBcA BB,B, || %14

